X: 36
T:Cadeau's Jig
% Nottingham Music Database
S:Trad, arr Phil Rowe
M:6/8
K:Bb
B-c|"Bb"dBF DFB-|dBF DFE-|"Bb"DFB dcB|
"Eb"AG^F "Cm"G2A|"F7"aAA aAa|"F7"g3 -ga-g|"F7"f=ef _ede-|d3 dB-c|
"Bb"dBF DFB-|dBF DFE-|"Bb"DFB dcB-|"Eb"AG^F "Cm"G2A|
"F7"aAA aAa|g3 -gA-G|"F7"FAc -ecA-|"Bb"B3 BF-E||
"Bb"D-FA BFB-|d3 d^c=c|"Bb"B-AB gfg|f3 -f2b|"F7"a3 -a^ga|
"F7"g3 -gag|f=ef _ede|"Bb"d3 -dF-E|"Bb"D-FA BFB-|d3 d^c=c|
"Bb"B-AB gfg|f3 -f2b|"F7"a3 -a^ga|"F7"g3 -gAG|F-Ac ecA-|"Bb"B3 B||


